X:1
T:G Major Oliver Holden, 1803
T:Helen M. Williams, 1786 86. 86. (C. M.)
T:Danville No copyright. Transcribed from The Charlestown Collection, 1803.
%%score [ 1 2 3 4 ]
L:1/8
M:4/4
K:G
V:1 treble nm="Treble" snm="Tr."
V:2 treble nm="Counter" snm="C."
V:3 treble-8 nm="Tenor" snm="T."
V:4 bass nm="Bass" snm="B."
V:1
 B4 | d4 c4 | B4 B4 | A4 A4 | G6 A2 | B4 d4 | d4 c4 | B6 B2 | d4 c4 | B4 B4 | A4 A4 | G6 d2 | %12
 (d2 g2) (g2 fe) | d4 c4 | B8 |] %15
V:2
 D4 | G4 F4 | G4 D4 | D4 D4 | D6 D2 | D4 G4 | F4 F4 | G6 D2 | G4 F4 | G4 G4 | F4 F4 | G6 F2 | %12
w: 1.~When|glad- ness|wings my|fa- vored|hour, Thy|love my|thoughts shall|fill: Re-|signed, when|storms of|sor- row|lower, My|
 G4 E4 | F4 F4 | G8 |] %15
w: soul shall|meet Thy|will.|
V:3
 G4 | B4 A4 | B4 g4 | d4 c4 | B6 A2 | G4 B4 | (c2 B2) A4 | G6 G2 | B4 A4 | B4 g4 | d4 c4 | B6 A2 | %12
 (B2 d2) (e2 dc) | B4 A4 | G8 |] %15
V:4
 G,4 | G,4 D,4 | G,4 B,,4 | D,4 D,4 | G,6 D,2 | B,,4 G,,4 | D,4 D,4 | G,6 G,2 | G,4 D,4 | G,4 B,4 | %10
 D4 D,4 | G,6 D,2 | B,,4 C,4 | D,4 D,4 | G,8 |] %15

